packages/core/src/svgs/tokens/branded/BROCK.svg

<svg width="24" height="24" viewBox="0 0 24 24" fill="none" xmlns="http://www.w3.org/2000/svg">
<path d="M3.27017 5.47097L10.9941 2.03552C11.0635 2.00447 11.1419 1.9999 11.2145 2.02266C11.2871 2.0454 11.3489 2.09392 11.3883 2.15906C11.4096 2.22546 11.4175 2.29544 11.4118 2.36495V4.85919C11.4118 4.87095 11.4 4.8886 11.3883 4.89448C11.3773 4.90557 11.3626 4.91191 11.3471 4.91213L3.30546 5.72981C3.28635 5.73092 3.26733 5.72653 3.25064 5.71714C3.23396 5.70775 3.22032 5.69378 3.21134 5.67687C3.15252 5.58864 3.17016 5.51804 3.27017 5.47097ZM12.9883 2.03552L20.7534 5.47686C20.8298 5.51804 20.8475 5.57687 20.7887 5.67099C20.7795 5.68589 20.7664 5.69807 20.7509 5.70634C20.7354 5.7146 20.718 5.71864 20.7004 5.71805L12.6412 4.90624C12.6294 4.90624 12.6118 4.90624 12.6059 4.89448C12.6002 4.88933 12.5956 4.88296 12.5925 4.87585C12.5895 4.86874 12.5881 4.86104 12.5882 4.8533V2.29435C12.5882 2.19434 12.6177 2.1414 12.6177 2.13551C12.7118 2.00022 12.8353 1.96493 12.9883 2.03552Z" fill="white"/>
<path d="M6.60672 13.442C5.32429 11.5242 4.036 9.61239 2.74183 7.70051C2.48887 7.3299 2.53004 7.04753 3.03008 7.02989L10.901 6.20043C10.9166 6.20043 10.9316 6.20664 10.9426 6.21766C10.9537 6.22869 10.9599 6.24366 10.9599 6.25926C10.9615 6.26703 10.9615 6.27503 10.9599 6.28279L6.78319 13.5537C6.77838 13.5621 6.77155 13.5692 6.76335 13.5743C6.75514 13.5795 6.74579 13.5825 6.73614 13.5831C6.727 13.5831 6.718 13.581 6.70983 13.5769C6.70166 13.5728 6.69455 13.5669 6.68907 13.5596C6.65973 13.5217 6.63225 13.4825 6.60672 13.442ZM21.1075 7.03577C21.1905 7.0515 21.2648 7.09751 21.3159 7.1649C21.3669 7.23228 21.3912 7.31625 21.3839 7.4005C21.378 7.45933 21.3546 7.51814 21.3251 7.55932L17.2484 13.5596C17.2465 13.5639 17.2437 13.5677 17.2404 13.571C17.237 13.5742 17.233 13.5766 17.2286 13.5783C17.2242 13.5799 17.2196 13.5806 17.2149 13.5805C17.2102 13.5804 17.2056 13.5793 17.2013 13.5773L17.1896 13.5596L13.0129 6.28279C12.9776 6.22397 12.9953 6.20043 13.0541 6.20043L21.1075 7.03577Z" fill="#A2A3A5"/>
<path d="M2.58775 16.1598V9.73003C2.58821 9.70916 2.59369 9.68885 2.60371 9.67059C2.61374 9.65233 2.62802 9.63682 2.64534 9.62529C2.66266 9.61363 2.68251 9.60649 2.70321 9.60429C2.7239 9.60196 2.74483 9.60484 2.76422 9.61239C2.79364 9.61829 2.82305 9.63586 2.83482 9.65947L5.70555 14.3538C5.71519 14.3684 5.72179 14.3847 5.72494 14.4019C5.72809 14.419 5.72773 14.4367 5.72389 14.4537C5.72004 14.4708 5.71278 14.4868 5.70256 14.5011C5.69232 14.5152 5.67933 14.5272 5.66437 14.5361L2.78775 16.2715C2.76756 16.2848 2.74407 16.2921 2.71994 16.2926C2.69581 16.2932 2.67201 16.287 2.6512 16.2748C2.63039 16.2626 2.61343 16.2447 2.60221 16.2235C2.591 16.2021 2.58599 16.1779 2.58775 16.1539V16.1598ZM18.2414 14.3891L21.1357 9.64767C21.1454 9.63037 21.1596 9.6161 21.1769 9.60649L21.2593 9.57121C21.2749 9.56339 21.2922 9.55955 21.3098 9.56009C21.3272 9.56064 21.3442 9.56545 21.3595 9.57423C21.3746 9.58302 21.3873 9.59537 21.3965 9.6102C21.4057 9.62502 21.4111 9.64204 21.4122 9.65947V16.201C21.4122 16.229 21.4011 16.256 21.3812 16.2758C21.3614 16.2957 21.3344 16.3068 21.3064 16.3068L21.2475 16.2892L18.2767 14.5244C18.2543 14.5113 18.2376 14.4903 18.2296 14.4656C18.2257 14.4518 18.2246 14.4373 18.2266 14.4231C18.2287 14.4089 18.2338 14.3953 18.2414 14.3832V14.3891Z" fill="white"/>
<path d="M12.7832 21.2247C12.3596 21.9778 11.8713 22.4189 11.3124 21.4188C10.1228 19.2902 8.93445 17.1606 7.74758 15.0303C7.74726 15.015 7.75089 15.0001 7.75811 14.9866C7.76533 14.9733 7.77588 14.9619 7.78876 14.9538C7.8013 14.9465 7.81545 14.9425 7.82994 14.942H16.1539C16.1658 14.9424 16.1775 14.9458 16.1878 14.952C16.1981 14.9582 16.2067 14.967 16.2126 14.9774C16.2194 14.9889 16.2229 15.0021 16.2229 15.0156C16.2229 15.029 16.2194 15.0422 16.2126 15.0539L12.7832 21.2247Z" fill="#A2A3A5"/>
<path d="M6.61204 15.7068L9.67687 21.2365C9.69252 21.2652 9.70089 21.2973 9.70117 21.3301C9.70144 21.3628 9.69362 21.3952 9.67852 21.4242C9.66342 21.4533 9.64146 21.4781 9.61456 21.4966C9.58751 21.5152 9.55649 21.5268 9.52396 21.5305L9.30036 21.5483C9.25518 21.5535 9.20952 21.543 9.17098 21.5189L3.3354 17.7127C3.29413 17.6841 3.26517 17.641 3.25427 17.592C3.24338 17.5428 3.25134 17.4915 3.27658 17.4481C3.29422 17.4186 3.31776 17.3892 3.34716 17.3774L6.33555 15.6304C6.35827 15.6166 6.38351 15.6074 6.40978 15.6036C6.43607 15.5997 6.46286 15.6011 6.4886 15.6076C6.51434 15.6142 6.53851 15.6258 6.5597 15.6419C6.58089 15.6578 6.59868 15.678 6.61204 15.7009V15.7068ZM14.4477 21.0306C15.4478 19.2188 16.4361 17.3951 17.4655 15.6067C17.4691 15.5988 17.4744 15.5918 17.481 15.586C17.4877 15.5804 17.4956 15.5763 17.5041 15.5741C17.5125 15.5717 17.5214 15.5715 17.5299 15.573C17.5385 15.5746 17.5466 15.5781 17.5538 15.5833C18.6008 16.1905 19.644 16.8042 20.6833 17.4245C20.7421 17.4598 20.7775 17.4951 20.7892 17.5246C20.801 17.5539 20.801 17.5833 20.7892 17.6186C20.7831 17.6443 20.7686 17.667 20.748 17.6834L14.8947 21.5071C14.5007 21.7719 14.2477 21.3835 14.4477 21.0306Z" fill="white"/>
</svg>

<svg xmlns="http://www.w3.org/2000/svg" width="24" height="24" fill="none" viewBox="0 0 24 24">
    <path fill="#fff" d="m3.27 5.471 7.724-3.435a.31.31 0 0 1 .394.123q.033.1.024.206v2.494c0 .012-.012.03-.024.035a.06.06 0 0 1-.04.018l-8.043.818a.1.1 0 0 1-.094-.053q-.089-.134.06-.206m9.718-3.435 7.765 3.44c.077.042.095.1.036.195a.1.1 0 0 1-.089.047l-8.059-.812c-.012 0-.03 0-.035-.012a.06.06 0 0 1-.018-.04v-2.56c0-.1.03-.153.03-.158q.14-.205.37-.1"/>
    <path fill="#A2A3A5" d="M6.607 13.442q-1.924-2.876-3.865-5.741c-.253-.371-.212-.653.288-.671l7.871-.83a.06.06 0 0 1 .059.06v.023l-4.177 7.27a.06.06 0 0 1-.047.03.06.06 0 0 1-.047-.023 2 2 0 0 1-.082-.118m14.5-6.406a.34.34 0 0 1 .277.365.34.34 0 0 1-.059.158l-4.077 6-.008.012a.04.04 0 0 1-.039.006l-.011-.017-4.177-7.277c-.035-.059-.018-.083.041-.083z"/>
    <path fill="#fff" d="M2.588 16.16V9.73a.13.13 0 0 1 .176-.118c.03.006.06.024.07.047l2.872 4.695a.13.13 0 0 1-.042.182l-2.876 1.736a.13.13 0 0 1-.137.003.13.13 0 0 1-.063-.121zm15.653-1.77 2.895-4.742a.1.1 0 0 1 .04-.042l.083-.035a.105.105 0 0 1 .137.04q.015.022.016.048v6.542a.106.106 0 0 1-.106.106l-.059-.018-2.97-1.765a.1.1 0 0 1-.047-.058.1.1 0 0 1 .011-.083z"/>
    <path fill="#A2A3A5" d="M12.783 21.225c-.423.753-.912 1.194-1.47.194q-1.785-3.193-3.565-6.389a.09.09 0 0 1 .04-.076.1.1 0 0 1 .042-.012h8.324a.07.07 0 0 1 .059.035.08.08 0 0 1 0 .077z"/>
    <path fill="#fff" d="m6.612 15.707 3.065 5.53a.2.2 0 0 1-.153.294l-.224.017a.2.2 0 0 1-.129-.03l-5.836-3.805a.2.2 0 0 1-.058-.265.16.16 0 0 1 .07-.07l2.989-1.748a.2.2 0 0 1 .224.012.2.2 0 0 1 .052.059zm7.836 5.324c1-1.812 1.988-3.636 3.017-5.424a.06.06 0 0 1 .088-.023q1.572.91 3.13 1.84.09.055.106.1a.13.13 0 0 1 0 .095.12.12 0 0 1-.041.064l-5.853 3.824c-.394.265-.647-.123-.447-.476"/>
</svg>
